assets/svg/manager.svg

<?xml version="1.0" encoding="UTF-8"?>
<svg width="1000px" height="1000px" viewBox="0 0 1000 1000" version="1.1" xmlns="http://www.w3.org/2000/svg" xmlns:xlink="http://www.w3.org/1999/xlink">
    <!-- Generator: sketchtool 52.4 (67378) - http://www.bohemiancoding.com/sketch -->
    <title>manager</title>
    <desc>Created with sketchtool.</desc>
    <g id="新版图标" stroke="none" stroke-width="1" fill="none" fill-rule="evenodd">
        <g id="manager" fill="#323233">
            <g id="直角-店铺管理员">
                <path d="M388.888889,555.555556 L500,666.666667 L611.111111,555.555556 L666.440263,555.555556 C666.589312,555.555556 666.736477,555.588874 666.870992,555.653075 L888.319618,661.344464 C888.667425,661.510463 888.888889,661.861556 888.888889,662.246945 L888.888889,943.444444 C888.888889,943.996729 888.441174,944.444444 887.888889,944.444444 L112.111111,944.444444 C111.558826,944.444444 111.111111,943.996729 111.111111,943.444444 L111.111111,662.246945 C111.111111,661.861556 111.332575,661.510463 111.680382,661.344464 L333.129008,555.653075 C333.263523,555.588874 333.410688,555.555556 333.559737,555.555556 L388.888889,555.555556 Z M500,500 C377.270056,500 277.777778,400.507722 277.777778,277.777778 C277.777778,155.047833 377.270056,55.5555556 500,55.5555556 C622.729944,55.5555556 722.222222,155.047833 722.222222,277.777778 C722.222222,400.507722 622.729944,500 500,500 Z M611.111111,722.222222 L611.111111,777.777778 L777.777778,777.777778 L777.777778,722.222222 L611.111111,722.222222 Z" id="Combined-Shape"></path>
            </g>
        </g>
    </g>
</svg>

<svg width="1000" height="1000" xmlns="http://www.w3.org/2000/svg"><path d="M388.889 555.556L500 666.666l111.111-111.11h55.33a1 1 0 0 1 .43.097L888.32 661.344a1 1 0 0 1 .569.903v281.197a1 1 0 0 1-1 1H112.11a1 1 0 0 1-1-1V662.247a1 1 0 0 1 .57-.903l221.448-105.69a1 1 0 0 1 .43-.098h55.33zM500 500c-122.73 0-222.222-99.492-222.222-222.222S377.27 55.556 500 55.556s222.222 99.492 222.222 222.222S622.73 500 500 500zm111.111 222.222v55.556h166.667v-55.556H611.11z" fill="#323233" fill-rule="evenodd"/></svg>
